X:112
T:King,The. JBs.112
S:Jas.Blackshaw MS, 1837, N.Shropshire
A:North Shropshire
Z:T. Weatherall 2006
M:6/8
L:1/8
Q:3/8=100
R:Quadrille?
K:C
G|c>Bc e>dc|fAA A2A|GAG cBe|d3d2G|!
edc cBA|G^Fd d2d|gdB edF|G3G2:|!
|:A|ABc def|GAB c2G|DFA dfd|cBB B2G|!
cGG dGG|edc BAc|Gce g2B|dBzg3|!
eczc3{Bdc}|BAzA3|Ace g2B|eczg3|!
{Bdc}eczc3|BAzA3|Gce g2B|d3c2:|

